fs/align_center_vertical_28_filled.svg

<svg viewBox="0 0 28 28" fill="none" xmlns="http://www.w3.org/2000/svg" height="1em" width="1em">
  <path d="M14.25 26C13.8358 26 13.5 25.6642 13.5 25.25V23H10C8.48122 23 7.25 21.7688 7.25 20.25V17.75C7.25 16.2312 8.48122 15 10 15H13.5V13H7.25C5.73122 13 4.5 11.7688 4.5 10.25V7.75C4.5 6.23122 5.73122 5 7.25 5H13.5V2.75C13.5 2.33579 13.8358 2 14.25 2C14.6642 2 15 2.33579 15 2.75V5H20.75C22.2688 5 23.5 6.23122 23.5 7.75V10.25C23.5 11.7688 22.2688 13 20.75 13H15V15H18C19.5188 15 20.75 16.2312 20.75 17.75V20.25C20.75 21.7688 19.5188 23 18 23H15V25.25C15 25.6642 14.6642 26 14.25 26Z" fill="#212121"/>
</svg>

<svg viewBox="0 0 28 28" fill="none" xmlns="http://www.w3.org/2000/svg" height="1em" width="1em">
  <path d="M14.25 26a.75.75 0 0 1-.75-.75V23H10a2.75 2.75 0 0 1-2.75-2.75v-2.5A2.75 2.75 0 0 1 10 15h3.5v-2H7.25a2.75 2.75 0 0 1-2.75-2.75v-2.5A2.75 2.75 0 0 1 7.25 5h6.25V2.75a.75.75 0 0 1 1.5 0V5h5.75a2.75 2.75 0 0 1 2.75 2.75v2.5A2.75 2.75 0 0 1 20.75 13H15v2h3a2.75 2.75 0 0 1 2.75 2.75v2.5A2.75 2.75 0 0 1 18 23h-3v2.25a.75.75 0 0 1-.75.75Z" fill="#212121"/>
</svg>
